dist/assets/img/order-tracking.svg

<svg width="17" height="10" viewBox="0 0 17 10" fill="none" xmlns="http://www.w3.org/2000/svg">
<path d="M1.97546 5.80929H10.1402V7.34396H5.15729H4.99863C4.75758 6.68244 4.12339 6.2089 3.37975 6.2089C2.64742 6.2089 2.02046 6.66887 1.77176 7.31454C1.46537 7.22605 1.24091 6.94412 1.24091 6.60906V6.54361C1.24078 6.1379 1.56987 5.80929 1.97546 5.80929ZM4.60461 7.76063C4.60461 8.46709 4.0294 9.04201 3.32237 9.04201C2.61595 9.04201 2.0408 8.46705 2.0408 7.76063C2.0408 7.05357 2.61595 6.47836 3.32237 6.47836C4.0294 6.47836 4.60461 7.05354 4.60461 7.76063ZM4.21227 7.76063C4.21227 7.26974 3.81336 6.87064 3.32234 6.87064C2.83147 6.87064 2.43273 7.2699 2.43273 7.76063C2.43273 8.25098 2.83167 8.64992 3.32234 8.64992C3.81349 8.65005 4.21227 8.25095 4.21227 7.76063ZM14.6303 7.76063C14.6303 8.46709 14.0551 9.04201 13.3484 9.04201C12.6417 9.04201 12.0668 8.46705 12.0668 7.76063C12.0668 7.05357 12.6417 6.47836 13.3484 6.47836C14.0551 6.47836 14.6303 7.05354 14.6303 7.76063ZM14.2384 7.76063C14.2384 7.26974 13.8391 6.87064 13.3486 6.87064C12.858 6.87064 12.4591 7.2699 12.4591 7.76063C12.4591 8.25098 12.8584 8.64992 13.3486 8.64992C13.8391 8.65005 14.2384 8.25095 14.2384 7.76063ZM16.5 4.88683V6.97675C16.5 7.11194 16.3899 7.22168 16.2552 7.22168H14.9743C14.7035 6.62494 14.1022 6.2089 13.4057 6.2089C12.7089 6.2089 12.1081 6.62506 11.8369 7.22168H10.9728C10.8377 7.22168 10.7276 7.11194 10.7276 6.97675V1.96417C10.7276 1.82875 10.8377 1.71924 10.9728 1.71924H14.1977C14.3327 1.71924 14.5385 1.76424 14.6873 1.96417L16.5 4.88683ZM15.3571 4.24978L14.255 2.4211C14.1698 2.26369 14.065 2.17655 13.6915 2.17655H11.6912C11.5561 2.17655 11.4464 2.28587 11.4464 2.4211V4.24978C11.4464 4.38539 11.5561 4.49487 11.6912 4.49487H15.1118C15.2474 4.49487 15.3571 4.38539 15.3571 4.24978ZM16.3122 6.22545C16.3122 6.09935 16.2098 5.99682 16.0835 5.99682C15.9569 5.99682 15.8547 6.09919 15.8547 6.22545V6.65814C15.8547 6.78446 15.9569 6.88697 16.0835 6.88697C16.2099 6.88697 16.3122 6.78479 16.3122 6.65814V6.22545ZM0.5 5.37059H10.1402V0.957886H0.5V5.37059Z" fill="white"/>
</svg>

<svg width="17" height="10" fill="none" xmlns="http://www.w3.org/2000/svg"><path d="M1.975 5.81h8.165v1.534H5a1.725 1.725 0 00-1.62-1.135c-.732 0-1.359.46-1.607 1.106a.735.735 0 01-.531-.706v-.065c0-.406.329-.735.734-.735zm2.63 1.95a1.283 1.283 0 01-2.564 0c0-.706.575-1.282 1.281-1.282.707 0 1.283.576 1.283 1.283zm-.393 0a.89.89 0 00-1.78 0 .89.89 0 001.78 0zm10.418 0a1.283 1.283 0 11-1.282-1.282c.707 0 1.282.576 1.282 1.283zm-.392 0a.89.89 0 00-1.779 0 .89.89 0 001.78 0zM16.5 4.888v2.09c0 .135-.11.245-.245.245h-1.28a1.724 1.724 0 00-1.57-1.013c-.696 0-1.297.416-1.568 1.013h-.864a.245.245 0 01-.245-.245V1.964c0-.135.11-.245.245-.245h3.225c.135 0 .34.045.49.245L16.5 4.887zm-1.143-.637L14.255 2.42c-.085-.157-.19-.244-.564-.244h-2a.245.245 0 00-.245.244v1.83c0 .135.11.245.245.245h3.42c.136 0 .246-.11.246-.245zm.955 1.975a.229.229 0 00-.457 0v.433a.229.229 0 10.457 0v-.433zM.5 5.371h9.64V.958H.5V5.37z" fill="#fff"/></svg>
